X: 27
T:Jenny Lind
M:2/2
L:1/4
R:Polka
K:D
"D"FA "G"GB|"D"Af f/2e/2f|"A"Ge e/2d/2e|"D"Fd d/2c/2d|
"D"FA "G"GB|"D"Af f/2e/2f|"A"ge c/se/2d/2c/2|"D"dfd2:|
K:G
|:"G"gf "C"e/2g/2f/2e/2|"G"dB B/2A/2B/2d/2|"D"cA A/2G/2A/2c/2|"G"BG G e/2f/2|
"G"gf "C"e/2g/2f/2e/2|"G"dB B/2c/2d/2B/2|"D"cA A/2c/2B/2A/2|"G"GB G2:|
